images/note-28.svg

<?xml version="1.0" encoding="utf-8"?>
<!-- Generator: Adobe Illustrator 24.3.0, SVG Export Plug-In . SVG Version: 6.00 Build 0)  -->
<svg version="1.1" xmlns="http://www.w3.org/2000/svg" xmlns:xlink="http://www.w3.org/1999/xlink" x="0px" y="0px"
	 viewBox="0 0 28 28" style="enable-background:new 0 0 28 28;" xml:space="preserve">
<style type="text/css">
	.st0{display:none;}
	.st1{display:inline;}
</style>
<g id="Export" class="st0">
	<path class="st1" d="M21,3H7C5.9,3,5,3.9,5,5v18c0,1.1,0.9,2,2,2h14c1.1,0,2-0.9,2-2V5C23,3.9,22.1,3,21,3z M17,19.5H7V18h10V19.5z
		 M21,16H7v-1.5h14V16z M21,12.5H7V11h14V12.5z M21,9H7V7.5h14V9z"/>
</g>
<g id="katman_2" class="st0">
	<g class="st1">
		<g>
			<g>
				<path d="M9.6,6.1h8.8c0.3,0,0.5-0.2,0.5-0.5v-1c0-0.8-0.7-1.5-1.5-1.5h-1.7c-0.3-0.6-1-1-1.7-1s-1.3,0.4-1.7,1h-1.7
					c-0.8,0-1.5,0.7-1.5,1.5v1C9.1,5.9,9.3,6.1,9.6,6.1z"/>
				<path d="M21.4,4.2h-1c-0.3,0-0.5,0.2-0.5,0.5v1c0,0.8-0.7,1.5-1.5,1.5H9.6c-0.8,0-1.5-0.7-1.5-1.5v-1c0-0.3-0.2-0.5-0.5-0.5h-1
					c-0.8,0-1.5,0.7-1.5,1.5v18.7c0,0.8,0.7,1.5,1.5,1.5h14.7c0.8,0,1.5-0.7,1.5-1.5V5.6C22.8,4.8,22.2,4.2,21.4,4.2z M8.6,22.4
					c-0.5,0-1-0.4-1-1c0-0.5,0.4-1,1-1c0.5,0,1,0.4,1,1C9.6,21.9,9.1,22.4,8.6,22.4z M8.6,18.4c-0.5,0-1-0.4-1-1s0.4-1,1-1
					c0.5,0,1,0.4,1,1S9.1,18.4,8.6,18.4z M8.6,14.5c-0.5,0-1-0.4-1-1c0-0.5,0.4-1,1-1c0.5,0,1,0.4,1,1C9.6,14.1,9.1,14.5,8.6,14.5z
					 M8.6,10.6c-0.5,0-1-0.4-1-1s0.4-1,1-1c0.5,0,1,0.4,1,1S9.1,10.6,8.6,10.6z M15.5,21.9h-3.9c-0.3,0-0.5-0.2-0.5-0.5
					c0-0.3,0.2-0.5,0.5-0.5h3.9c0.3,0,0.5,0.2,0.5,0.5C16,21.6,15.7,21.9,15.5,21.9z M20.4,17.9h-8.8c-0.3,0-0.5-0.2-0.5-0.5
					c0-0.3,0.2-0.5,0.5-0.5h8.8c0.3,0,0.5,0.2,0.5,0.5S20.7,17.9,20.4,17.9z M20.4,14h-8.8c-0.3,0-0.5-0.2-0.5-0.5
					c0-0.3,0.2-0.5,0.5-0.5h8.8c0.3,0,0.5,0.2,0.5,0.5C20.9,13.8,20.7,14,20.4,14z M20.4,10.1h-8.8c-0.3,0-0.5-0.2-0.5-0.5
					s0.2-0.5,0.5-0.5h8.8c0.3,0,0.5,0.2,0.5,0.5S20.7,10.1,20.4,10.1z"/>
			</g>
		</g>
	</g>
</g>
<g id="katman_3">
	<g>
		<g>
			<g>
				<path d="M18.1,12.5c0-0.5-0.4-0.9-0.9-0.9H8.4c-0.5,0-0.9,0.4-0.9,0.9s0.4,0.9,0.9,0.9h8.9C17.8,13.3,18.1,12.9,18.1,12.5z"/>
				<path d="M8.4,15c-0.5,0-0.9,0.4-0.9,0.9s0.4,0.9,0.9,0.9h5.4c0.5,0,0.9-0.4,0.9-0.9S14.3,15,13.8,15H8.4z"/>
				<path d="M10.5,23.3H7.6c-0.9,0-1.7-0.8-1.7-1.7V6.4c0-0.9,0.8-1.7,1.7-1.7h10.6c0.9,0,1.7,0.8,1.7,1.7v5.3
					c0,0.5,0.4,0.9,0.9,0.9c0.5,0,0.9-0.4,0.9-0.9V6.4C21.6,4.5,20,3,18.1,3H7.6C5.7,3,4.1,4.5,4.1,6.4v15.1c0,1.9,1.5,3.4,3.4,3.4
					h2.9c0.5,0,0.9-0.4,0.9-0.9S10.9,23.3,10.5,23.3z"/>
				<path d="M23.1,15.4c-1-1-2.6-1-3.6,0l-4.7,4.7c-0.1,0.1-0.2,0.2-0.2,0.4l-1,3.4c-0.1,0.3,0,0.6,0.2,0.8c0.2,0.2,0.4,0.3,0.6,0.3
					c0.1,0,0.2,0,0.2,0l3.5-1c0.1,0,0.3-0.1,0.4-0.2l4.7-4.7C24.1,18.1,24.1,16.4,23.1,15.4z M17.3,22.4l-1.7,0.5l0.5-1.7l3.2-3.2
					l1.2,1.2L17.3,22.4z M21.9,17.9L21.7,18l-1.2-1.2l0.2-0.2c0.3-0.3,0.9-0.3,1.2,0C22.2,17,22.2,17.5,21.9,17.9z"/>
				<path d="M17.3,8.2H8.4C8,8.2,7.6,8.5,7.6,9S8,9.9,8.4,9.9h8.9c0.5,0,0.9-0.4,0.9-0.9S17.8,8.2,17.3,8.2z"/>
			</g>
		</g>
	</g>
</g>
</svg>

<svg id="Export" xmlns="http://www.w3.org/2000/svg" viewBox="0 0 28 28"><title>note-28</title><path d="M21,3H7A2,2,0,0,0,5,5V23a2,2,0,0,0,2,2H21a2,2,0,0,0,2-2V5A2,2,0,0,0,21,3ZM17,19.5H7V18H17ZM21,16H7V14.5H21Zm0-3.5H7V11H21ZM21,9H7V7.5H21Z"/></svg>
